dist/img/menu/menu-icon1.svg

<svg width="21" height="22" viewBox="0 0 21 22" fill="none" xmlns="http://www.w3.org/2000/svg">
<path d="M20.942 3.20509C20.942 2.11856 19.8198 1.3099 17.5112 0.732745C15.6211 0.260225 13.1209 0 10.471 0C7.82127 0 5.32094 0.260225 3.43086 0.732745C1.12225 1.3099 0 2.11856 0 3.20509C0 3.60713 0.15413 3.97105 0.464688 4.29936L7.59112 12.9433V21.2168C7.59112 21.4878 7.73115 21.7395 7.96141 21.8823C8.08745 21.9605 8.23062 22 8.3743 22C8.49314 22 8.61218 21.973 8.72214 21.9186L12.9069 19.8444C13.1732 19.7124 13.3419 19.441 13.3423 19.1437L13.3503 12.9438L20.4777 4.29883C20.7881 3.97063 20.942 3.60702 20.942 3.20509ZM4.16381 2.16858C5.88963 1.78022 8.12953 1.56636 10.471 1.56636C12.8125 1.56636 15.0525 1.78022 16.7782 2.16858C18.6839 2.59745 19.2196 3.05838 19.3477 3.20509C19.2195 3.35181 18.6839 3.81274 16.7782 4.24161C15.0525 4.62996 12.8124 4.84382 10.471 4.84382C8.12964 4.84382 5.88963 4.62996 4.16381 4.24171C2.25817 3.81284 1.72237 3.35191 1.59425 3.2052C1.72237 3.05838 2.25817 2.59745 4.16381 2.16858ZM11.9634 12.164C11.848 12.304 11.7847 12.4796 11.7845 12.6611L11.7767 18.6564L9.15759 19.9546V12.6622C9.15759 12.4804 9.09441 12.3042 8.97871 12.164L3.67991 5.73686C5.53804 6.17147 7.93541 6.41029 10.471 6.41029C13.0068 6.41029 15.404 6.17147 17.2622 5.73686L11.9634 12.164Z" fill="#BFC0C4"/>
</svg>

<svg width="21" height="22" fill="none" xmlns="http://www.w3.org/2000/svg"><path d="M20.942 3.205c0-1.086-1.122-1.895-3.43-2.472C15.621.26 13.12 0 10.47 0 7.82 0 5.32.26 3.43.733 1.122 1.31 0 2.119 0 3.205c0 .402.154.766.465 1.094l7.126 8.644v8.274a.783.783 0 001.131.702l4.185-2.075a.783.783 0 00.435-.7l.008-6.2 7.128-8.645c.31-.328.464-.692.464-1.094zM4.164 2.17c1.726-.389 3.966-.603 6.307-.603s4.582.214 6.307.603c1.906.428 2.442.89 2.57 1.036-.128.147-.664.608-2.57 1.037-1.725.388-3.966.602-6.307.602S5.89 4.63 4.164 4.242c-1.906-.43-2.442-.89-2.57-1.037.128-.147.664-.608 2.57-1.036zm7.8 9.995a.783.783 0 00-.18.497l-.007 5.995-2.62 1.299v-7.293a.783.783 0 00-.178-.498l-5.3-6.427c1.859.434 4.256.673 6.792.673 2.536 0 4.933-.239 6.791-.673l-5.299 6.427z" fill="#BFC0C4"/></svg>
